packages/core/src/svgs/tokens/branded/GDCC.svg

<svg width="24" height="24" viewBox="0 0 24 24" fill="none" xmlns="http://www.w3.org/2000/svg">
<path d="M10.9472 14.6316C10.5737 16.5789 9.18415 19.8947 6.7368 19.8947C4.10525 19.8947 3.05262 14.3894 3.05262 12C3.05262 7.78948 4.89471 4.1053 6.7368 4.1053C8.72625 4.1053 10.5316 7.09474 10.9472 8.8421C10.2421 5.75792 8.72625 3.57899 6.7368 3.57899C4.12103 3.57899 2 7.34738 2 12C2 16.6526 4.12103 20.421 6.7368 20.421C8.83678 20.421 10.3262 17.9946 10.9472 14.6316Z" fill="url(#paint0_linear_364_11577)"/>
<path d="M9.50971 14.6316C9.12023 16.342 8.37287 18.0526 7.20973 18.0526C5.87815 18.0526 4.90974 16.7579 4.12027 15.7053L4.10449 15.6842C4.75712 17.5789 5.90447 18.842 7.20973 18.842C8.74129 18.842 10.0519 17.1053 10.6098 14.6316H9.50444H9.50971ZM10.4781 8.84214C9.86236 6.65268 8.63076 5.15796 7.20973 5.15796C5.78869 5.15796 4.72028 6.65268 4.10449 8.84214L4.30448 8.51056C5.03079 7.27373 5.81499 5.94743 7.20973 5.94743C8.34655 5.94743 9.04129 7.32636 9.43076 8.84214H10.4834H10.4781Z" fill="#ECEDED"/>
<path d="M6.73719 10.4211H9.36875V9.36842H6.73719C5.8951 9.36842 5.68457 10.0685 5.68457 10.4211V13.0527C5.68457 13.8947 6.38456 14.1052 6.73719 14.1052H8.31613C9.15822 14.1052 9.36875 13.4052 9.36875 13.0527V11.4736H7.26351V12.5263H8.31613V13.0527H6.73719V10.4211ZM15.1582 13.0527V10.4211H16.7371V10.9474H17.7898V10.4211C17.7898 9.89471 17.5108 9.36842 16.7371 9.36842H15.1582C14.3161 9.36842 14.1056 10.0685 14.1056 10.4211V13.0527C14.1056 13.8947 14.8056 14.1052 15.1582 14.1052H16.7371C17.5792 14.1052 17.7898 13.4052 17.7898 13.0527V12.5263H16.7371V13.0527H15.1582ZM19.3687 13.0527V10.4211H20.9476V10.9474H22.0002V10.4211C22.0002 9.89471 21.7213 9.36842 20.9476 9.36842H19.3687C18.5266 9.36842 18.316 10.0685 18.316 10.4211V13.0527C18.316 13.8947 19.016 14.1052 19.3687 14.1052H20.9476C21.7897 14.1052 22.0002 13.4052 22.0002 13.0527V12.5263H20.9476V13.0527H19.3687ZM9.89507 10.4211V9.36842H12.5267C13.3688 9.36842 13.5793 10.0685 13.5793 10.4211V13.0527C13.5793 13.8947 12.8793 14.1052 12.5267 14.1052H9.89507V10.9474H10.9476V13.0527H12.5267V10.4211H9.89507Z" fill="#CE1DB4"/>
<defs>
<linearGradient id="paint0_linear_364_11577" x1="11.9999" y1="3.57899" x2="11.9999" y2="20.421" gradientUnits="userSpaceOnUse">
<stop stop-color="#6602FF"/>
<stop offset="0.19" stop-color="#9C2597"/>
<stop offset="0.49" stop-color="#E74D47"/>
<stop offset="0.72" stop-color="#E21D91"/>
<stop offset="1" stop-color="#AD2B88"/>
</linearGradient>
</defs>
</svg>

<svg xmlns="http://www.w3.org/2000/svg" width="24" height="24" fill="none" viewBox="0 0 24 24">
    <path fill="url(#GDCC__a)" d="M10.947 14.632c-.373 1.947-1.763 5.263-4.21 5.263-2.632 0-3.684-5.506-3.684-7.895 0-4.21 1.842-7.895 3.684-7.895 1.99 0 3.795 2.99 4.21 4.737-.705-3.084-2.22-5.263-4.21-5.263C4.12 3.579 2 7.347 2 12s2.121 8.421 4.737 8.421c2.1 0 3.59-2.426 4.21-5.79"/>
    <path fill="#ECEDED" d="M9.51 14.632c-.39 1.71-1.137 3.42-2.3 3.42-1.332 0-2.3-1.294-3.09-2.347l-.016-.02c.653 1.894 1.8 3.157 3.106 3.157 1.531 0 2.842-1.737 3.4-4.21H9.504zm.968-5.79c-.616-2.19-1.847-3.684-3.268-3.684S4.72 6.653 4.104 8.842l.2-.331c.727-1.237 1.511-2.564 2.906-2.564 1.137 0 1.831 1.38 2.22 2.895h1.053z"/>
    <path fill="#CE1DB4" d="M6.737 10.421H9.37V9.368H6.737c-.842 0-1.052.7-1.052 1.053v2.632c0 .842.7 1.052 1.052 1.052h1.58c.841 0 1.052-.7 1.052-1.052v-1.58H7.264v1.053h1.052v.527H6.737zm8.421 2.632V10.42h1.58v.526h1.052v-.526c0-.526-.28-1.053-1.053-1.053h-1.579c-.842 0-1.052.7-1.052 1.053v2.632c0 .842.7 1.052 1.052 1.052h1.58c.841 0 1.052-.7 1.052-1.052v-.527h-1.053v.527zm4.21 0V10.42h1.58v.526H22v-.526c0-.526-.279-1.053-1.052-1.053h-1.58c-.841 0-1.052.7-1.052 1.053v2.632c0 .842.7 1.052 1.053 1.052h1.579c.842 0 1.052-.7 1.052-1.052v-.527h-1.052v.527zM9.896 10.42V9.368h2.632c.842 0 1.052.7 1.052 1.053v2.632c0 .842-.7 1.052-1.052 1.052H9.895v-3.158h1.053v2.106h1.579V10.42z"/>
    <defs>
        <linearGradient id="GDCC__a" x1="12" x2="12" y1="3.579" y2="20.421" gradientUnits="userSpaceOnUse">
            <stop stop-color="#6602FF"/>
            <stop offset=".19" stop-color="#9C2597"/>
            <stop offset=".49" stop-color="#E74D47"/>
            <stop offset=".72" stop-color="#E21D91"/>
            <stop offset="1" stop-color="#AD2B88"/>
        </linearGradient>
    </defs>
</svg>
